;FLAVOR:UltiGCode
;TIME:2804
;MATERIAL:1405
;MATERIAL2:0
;NOZZLE_DIAMETER:0.4
;Generated with Cura_SteamEngine 3.6.0
M82 ;absolute extrusion mode

G92 E0
G10
;LAYER_COUNT:311
;LAYER:0
M107
G0 F4320 X102.57 Y102.67 Z0.27
;TYPE:SKIRT
G11
G1 F1800 X103.084 Y102.245 E0.06303
G1 X103.208 Y102.108 E0.08049
G1 X103.798 Y101.576 E0.15556
G1 X104.437 Y101.107 E0.23047
G1 X104.842 Y100.858 E0.27539
G1 X105.478 Y100.492 E0.34474
G1 X106.185 Y100.131 E0.41976
G1 X106.924 Y99.843 E0.49471
G1 X107.544 Y99.671 E0.55551
G1 X107.719 Y99.594 E0.57358
G1 X108.474 Y99.348 E0.64862
G1 X109.249 Y99.179 E0.72357
G1 X109.729 Y99.115 E0.76934
G1 X110.46 Y99.04 E0.83878
G1 X111.253 Y98.999 E0.91382
G1 X112.045 Y99.038 E0.98875
G1 X112.682 Y99.134 E1.04963
G1 X112.961 Y99.138 E1.076
G1 X113.749 Y99.23 E1.15097
G1 X114.881 Y99.507 E1.2611
G1 X115.579 Y99.734 E1.33046
G1 X116.32 Y100.017 E1.40542
G1 X117.029 Y100.373 E1.48039
G1 X117.593 Y100.732 E1.54357
G1 X117.753 Y100.804 E1.56015
G1 X118.441 Y101.2 E1.63517
G1 X119.085 Y101.664 E1.71017
G1 X119.435 Y101.96 E1.75349
G1 X119.981 Y102.451 E1.82288
G1 X120.543 Y103.011 E1.89786
G1 X121.047 Y103.624 E1.97285
G1 X121.428 Y104.197 E2.03788
G1 X121.534 Y104.316 E2.05294
G1 X122.001 Y104.958 E2.12796
G1 X122.401 Y105.643 E2.20292
G1 X122.597 Y106.049 E2.24552
G1 X122.897 Y106.719 E2.3149
G1 X123.185 Y107.458 E2.38985
G1 X123.396 Y108.223 E2.46484
G1 X123.513 Y108.906 E2.53032
G1 X123.566 Y109.071 E2.5467
G1 X123.731 Y109.847 E2.62167
G1 X123.817 Y110.635 E2.69658
G1 X123.831 Y111.098 E2.74035
G1 X123.831 Y111.832 E2.80972
G1 X123.791 Y112.624 E2.88466
G1 X123.672 Y113.409 E2.95969
G1 X123.505 Y114.055 E3.02274
G1 X123.486 Y114.233 E3.03966
G1 X123.321 Y115.01 E3.11472
G1 X123.08 Y115.765 E3.18961
G1 X122.902 Y116.197 E3.23377
G1 X122.603 Y116.868 E3.30319
G1 X122.244 Y117.576 E3.3782
G1 X121.816 Y118.244 E3.45318
G1 X121.412 Y118.752 E3.51451
G1 X121.313 Y118.922 E3.5331
G1 X120.847 Y119.564 E3.60807
G1 X120.318 Y120.156 E3.68309
G1 X119.969 Y120.489 E3.72868
G1 X119.422 Y120.979 E3.79808
G1 X118.806 Y121.478 E3.87299
G1 X118.141 Y121.912 E3.94803
G1 X117.591 Y122.197 E4.00657
G1 X117.425 Y122.317 E4.02593
G1 X116.738 Y122.715 E4.10096
G1 X116.015 Y123.041 E4.17591
G1 X115.556 Y123.204 E4.22194
G1 X114.857 Y123.429 E4.29133
G1 X114.09 Y123.634 E4.36636
G1 X113.307 Y123.761 E4.44132
G1 X112.669 Y123.799 E4.50171
G1 X112.481 Y123.838 E4.51986
G1 X111.692 Y123.921 E4.59483
G1 X110.899 Y123.925 E4.66977
G1 X110.437 Y123.89 E4.71355
G1 X109.707 Y123.813 E4.78292
G1 X108.923 Y123.69 E4.85792
G1 X108.155 Y123.489 E4.93294
G1 X107.529 Y123.255 E4.99609
G1 X107.355 Y123.217 E5.01292
G1 X106.6 Y122.972 E5.08793
G1 X105.874 Y122.653 E5.16287
G1 X105.464 Y122.432 E5.20688
G1 X104.829 Y122.065 E5.27619
G1 X104.163 Y121.634 E5.35116
G1 X103.544 Y121.138 E5.42612
G1 X103.071 Y120.673 E5.4888
G1 X102.924 Y120.566 E5.50598
G1 X102.334 Y120.035 E5.58099
G1 X101.801 Y119.448 E5.65592
G1 X101.524 Y119.09 E5.69869
G1 X101.092 Y118.497 E5.76803
G1 X100.658 Y117.833 E5.84299
G1 X100.292 Y117.129 E5.91797
G1 X100.039 Y116.49 E5.98292
G1 X99.953 Y116.34 E5.99926
G1 X99.63 Y115.615 E6.07426
G1 X99.382 Y114.861 E6.14927
G1 X99.277 Y114.432 E6.191
G1 X99.123 Y113.716 E6.26021
G1 X98.996 Y112.933 E6.33517
G1 X98.947 Y112.141 E6.41016
G1 X98.975 Y111.439 E6.47655
G1 X98.958 Y111.268 E6.49279
G1 X98.958 Y110.474 E6.56783
G1 X99.038 Y109.685 E6.64277
G1 X99.121 Y109.228 E6.68666
G1 X99.274 Y108.511 E6.75594
G1 X99.479 Y107.744 E6.83097
G1 X99.759 Y107.002 E6.90591
G1 X100.053 Y106.412 E6.96821
G1 X100.109 Y106.241 E6.98521
G1 X100.431 Y105.516 E7.06018
G1 X100.824 Y104.827 E7.13514
G1 X101.084 Y104.446 E7.17872
G1 X101.515 Y103.852 E7.24808
G1 X102.013 Y103.234 E7.32308
G1 X102.57 Y102.67 E7.39799
G0 F4320 X102.832 Y102.904
G1 F1800 X103.333 Y102.495 E7.45911
G1 X103.618 Y102.198 E7.49801
G1 X104.21 Y101.697 E7.57129
G1 X105.017 Y101.161 E7.66284
G1 X105.653 Y100.795 E7.73219
G1 X106.344 Y100.443 E7.80547
G1 X107.068 Y100.164 E7.87879
G1 X107.665 Y100.003 E7.93723
G1 X108.057 Y99.843 E7.97724
G1 X108.802 Y99.626 E8.05056
G1 X109.765 Y99.463 E8.14286
G1 X110.496 Y99.388 E8.2123
G1 X111.271 Y99.349 E8.28563
G1 X112.045 Y99.39 E8.35888
G1 X112.629 Y99.482 E8.41475
G1 X113.164 Y99.505 E8.46535
G1 X113.931 Y99.619 E8.53863
G1 X114.772 Y99.84 E8.6208
G1 X115.47 Y100.067 E8.69017
G1 X116.195 Y100.344 E8.76351
G1 X116.886 Y100.695 E8.83675
G1 X117.432 Y101.047 E8.89814
G1 X117.794 Y101.222 E8.93614
G1 X118.454 Y101.63 E9.00946
G1 X119.201 Y102.221 E9.09947
G1 X119.747 Y102.712 E9.16887
G1 X120.296 Y103.259 E9.2421
G1 X120.786 Y103.861 E9.31545
G1 X121.151 Y104.418 E9.37838
G1 X121.402 Y104.715 E9.41513
G1 X121.839 Y105.356 E9.48844
G1 X122.278 Y106.192 E9.57768
G1 X122.578 Y106.862 E9.64705
G1 X122.858 Y107.585 E9.72032
G1 X123.062 Y108.333 E9.79358
G1 X123.171 Y108.997 E9.85717
G1 X123.282 Y109.381 E9.89495
G1 X123.42 Y110.144 E9.96822
G1 X123.481 Y111.098 E10.05856
G1 X123.481 Y111.832 E10.12792
G1 X123.441 Y112.607 E10.20125
G1 X123.322 Y113.373 E10.27451
G1 X123.156 Y114.001 E10.33589
G1 X123.101 Y114.401 E10.37405
G1 X122.916 Y115.155 E10.44742
G1 X122.582 Y116.055 E10.53813
G1 X122.283 Y116.726 E10.60755
G1 X121.932 Y117.417 E10.68079
G1 X121.511 Y118.068 E10.75406
G1 X121.116 Y118.56 E10.81368
G1 X120.893 Y118.919 E10.85362
G1 X120.418 Y119.532 E10.9269
G1 X119.736 Y120.228 E11.01899
G1 X119.189 Y120.718 E11.08839
G1 X118.585 Y121.205 E11.16171
G1 X117.935 Y121.627 E11.23494
G1 X117.399 Y121.902 E11.29187
G1 X117.042 Y122.144 E11.33263
G1 X116.359 Y122.511 E11.4059
G1 X115.449 Y122.871 E11.49838
G1 X114.75 Y123.096 E11.56777
G1 X114 Y123.295 E11.6411
G1 X113.234 Y123.416 E11.71439
G1 X112.623 Y123.449 E11.77221
G1 X112.203 Y123.524 E11.81253
G1 X111.429 Y123.581 E11.88587
G1 X110.474 Y123.541 E11.97619
G1 X109.744 Y123.464 E12.04556
G1 X108.978 Y123.343 E12.11885
G1 X108.228 Y123.144 E12.19217
G1 X107.623 Y122.915 E12.25331
G1 X107.228 Y122.817 E12.29176
G1 X106.498 Y122.555 E12.36506
G1 X105.64 Y122.129 E12.45558
G1 X105.005 Y121.762 E12.52489
G1 X104.354 Y121.34 E12.59821
G1 X103.75 Y120.853 E12.67153
G1 X103.297 Y120.403 E12.73187
G1 X102.971 Y120.149 E12.77092
G1 X102.411 Y119.612 E12.84424
G1 X101.807 Y118.884 E12.93363
G1 X101.375 Y118.291 E13.00296
G1 X100.951 Y117.641 E13.0763
G1 X100.596 Y116.951 E13.14963
G1 X100.353 Y116.326 E13.213
G1 X100.166 Y115.977 E13.25042
G1 X99.873 Y115.259 E13.3237
G1 X99.619 Y114.358 E13.41216
G1 X99.465 Y113.642 E13.48137
G1 X99.341 Y112.877 E13.55461
G1 X99.297 Y112.102 E13.62796
G1 X99.328 Y111.424 E13.6921
G1 X99.3 Y111.023 E13.73009
G1 X99.324 Y110.248 E13.80336
G1 X99.464 Y109.301 E13.89382
G1 X99.617 Y108.584 E13.96311
G1 X99.817 Y107.834 E14.03646
G1 X100.094 Y107.11 E14.10971
G1 X100.381 Y106.543 E14.16977
G1 X100.52 Y106.157 E14.20854
G1 X100.857 Y105.458 E14.28187
G1 X101.367 Y104.652 E14.372
G1 X101.798 Y104.058 E14.44136
G1 X102.286 Y103.454 E14.51474
G1 X102.832 Y102.904 E14.58797
G0 F4320 X103.094 Y103.139
G1 F1800 X103.521 Y102.794 E14.63985
G1 X104.03 Y102.297 E14.70708
G1 X104.624 Y101.827 E14.77866
G1 X105.191 Y101.464 E14.84228
G1 X105.827 Y101.098 E14.91162
G1 X106.503 Y100.756 E14.98321
G1 X107.211 Y100.486 E15.05482
G1 X107.715 Y100.353 E15.10408
G1 X108.392 Y100.101 E15.17234
G1 X109.126 Y99.913 E15.24394
G1 X109.801 Y99.811 E15.30846
G1 X110.532 Y99.736 E15.3779
G1 X111.288 Y99.699 E15.44943
G1 X112.044 Y99.742 E15.52098
G1 X112.551 Y99.825 E15.56953
G1 X112.606 Y99.823 E15.57473
G1 X113.361 Y99.88 E15.64628
G1 X114.106 Y100.016 E15.71785
G1 X114.664 Y100.173 E15.77263
G1 X115.362 Y100.4 E15.84199
G1 X116.069 Y100.672 E15.91358
G1 X116.743 Y101.017 E15.98513
G1 X117.197 Y101.313 E16.03634
G1 X117.827 Y101.643 E16.10355
G1 X118.457 Y102.063 E16.1751
G1 X118.967 Y102.481 E16.23742
G1 X119.513 Y102.972 E16.30681
G1 X120.048 Y103.507 E16.37831
G1 X120.525 Y104.096 E16.44993
G1 X120.839 Y104.581 E16.50453
G1 X121.26 Y105.113 E16.56864
G1 X121.666 Y105.753 E16.64027
G1 X121.959 Y106.335 E16.70184
G1 X122.259 Y107.005 E16.77121
G1 X122.531 Y107.711 E16.84271
G1 X122.728 Y108.443 E16.91435
G1 X122.817 Y109.008 E16.9684
G1 X122.991 Y109.687 E17.03464
G1 X123.1 Y110.436 E17.10616
G1 X123.131 Y111.098 E17.16879
G1 X123.131 Y111.832 E17.23815
G1 X123.091 Y112.588 E17.3097
G1 X122.972 Y113.336 E17.38127
G1 X122.829 Y113.865 E17.43306
G1 X122.71 Y114.563 E17.49997
G1 X122.505 Y115.292 E17.57153
G1 X122.263 Y115.912 E17.63443
G1 X121.964 Y116.583 E17.70385
G1 X121.619 Y117.258 E17.77548
G1 X121.206 Y117.892 E17.84699
G1 X120.876 Y118.298 E17.89643
G1 X120.47 Y118.908 E17.96567
G1 X119.987 Y119.49 E18.03715
G1 X119.502 Y119.967 E18.10143
G1 X118.955 Y120.457 E18.17083
G1 X118.365 Y120.932 E18.24241
G1 X117.729 Y121.342 E18.31392
G1 X117.284 Y121.566 E18.361
G1 X116.661 Y121.962 E18.43076
G1 X115.982 Y122.297 E18.50231
G1 X115.341 Y122.538 E18.56702
G1 X114.642 Y122.763 E18.63641
G1 X113.91 Y122.957 E18.70798
G1 X113.162 Y123.072 E18.77949
G1 X112.648 Y123.096 E18.82812
G1 X111.928 Y123.202 E18.89689
G1 X111.172 Y123.232 E18.96839
G1 X110.51 Y123.193 E19.03106
G1 X109.78 Y123.116 E19.10042
G1 X109.032 Y122.997 E19.172
G1 X108.301 Y122.8 E19.24354
G1 X107.794 Y122.604 E19.29491
G1 X107.108 Y122.411 E19.36225
G1 X106.404 Y122.131 E19.43385
G1 X105.815 Y121.826 E19.49653
G1 X105.18 Y121.459 E19.56584
G1 X104.545 Y121.046 E19.63742
G1 X103.957 Y120.568 E19.70903
G1 X103.57 Y120.179 E19.76089
G1 X103.027 Y119.729 E19.82753
G1 X102.498 Y119.187 E19.8991
G1 X102.09 Y118.678 E19.96075
G1 X101.658 Y118.085 E20.03008
G1 X101.245 Y117.45 E20.10166
G1 X100.901 Y116.775 E20.17326
G1 X100.695 Y116.238 E20.22761
G1 X100.387 Y115.617 E20.29312
G1 X100.125 Y114.907 E20.36463
G1 X99.961 Y114.285 E20.42542
G1 X99.807 Y113.569 E20.49463
G1 X99.687 Y112.821 E20.56622
G1 X99.647 Y112.065 E20.63776
G1 X99.677 Y111.486 E20.69255
G1 X99.649 Y110.785 E20.75885
G1 X99.698 Y110.029 E20.83044
G1 X99.806 Y109.374 E20.89317
G1 X99.959 Y108.657 E20.96245
G1 X100.156 Y107.925 E21.03409
G1 X100.429 Y107.219 E21.10562
G1 X100.673 Y106.744 E21.15608
G1 X100.936 Y106.08 E21.22358
G1 X101.288 Y105.409 E21.29518
G1 X101.651 Y104.857 E21.35761
G1 X102.082 Y104.263 E21.42697
G1 X102.558 Y103.675 E21.49846
G1 X103.094 Y103.139 E21.57009
G0 F4320 X103.355 Y103.375
G1 F1800 X103.783 Y103.034 E21.6218
G1 X103.897 Y102.905 E21.63807
G1 X104.442 Y102.406 E21.7079
G1 X105.037 Y101.969 E21.77766
G1 X105.366 Y101.768 E21.8141
G1 X106.002 Y101.402 E21.88344
G1 X106.661 Y101.068 E21.95326
G1 X107.352 Y100.808 E22.02303
G1 X107.859 Y100.678 E22.07249
G1 X108.024 Y100.602 E22.08966
G1 X108.725 Y100.368 E22.15949
G1 X109.446 Y100.211 E22.22923
G1 X109.836 Y100.16 E22.26639
G1 X110.567 Y100.085 E22.33584
G1 X111.305 Y100.049 E22.40566
G1 X112.043 Y100.094 E22.47553
G1 X112.558 Y100.181 E22.52489
G1 X112.817 Y100.181 E22.54936
G1 X113.551 Y100.261 E22.61914
G1 X114.556 Y100.506 E22.71689
G1 X115.254 Y100.733 E22.78625
G1 X115.943 Y100.999 E22.85605
G1 X116.599 Y101.338 E22.92583
G1 X117.05 Y101.637 E22.97696
G1 X117.208 Y101.705 E22.99322
G1 X117.85 Y102.069 E23.06296
G1 X118.45 Y102.501 E23.13283
G1 X118.733 Y102.741 E23.16789
G1 X119.279 Y103.232 E23.23728
G1 X119.8 Y103.755 E23.30705
G1 X120.262 Y104.331 E23.37682
G1 X120.563 Y104.802 E23.42965
G1 X120.67 Y104.918 E23.44456
G1 X121.109 Y105.512 E23.51436
G1 X121.639 Y106.478 E23.61848
G1 X121.939 Y107.148 E23.68785
G1 X122.204 Y107.837 E23.75762
G1 X122.393 Y108.551 E23.82741
G1 X122.477 Y109.107 E23.88055
G1 X122.531 Y109.268 E23.8966
G1 X122.69 Y109.989 E23.96637
G1 X122.771 Y110.724 E24.03625
G1 X122.781 Y111.098 E24.0716
G1 X122.781 Y111.832 E24.14097
G1 X122.741 Y112.57 E24.21081
G1 X122.622 Y113.298 E24.28052
G1 X122.476 Y113.823 E24.33201
G1 X122.46 Y113.993 E24.34815
G1 X122.312 Y114.717 E24.41798
G1 X122.087 Y115.42 E24.48774
G1 X121.943 Y115.77 E24.5235
G1 X121.644 Y116.441 E24.59292
G1 X121.307 Y117.098 E24.6627
G1 X120.902 Y117.716 E24.73252
G1 X120.565 Y118.123 E24.78246
G1 X120.474 Y118.285 E24.80002
G1 X120.045 Y118.886 E24.8698
G1 X119.553 Y119.437 E24.9396
G1 X119.269 Y119.707 E24.97663
G1 X118.722 Y120.197 E25.04603
G1 X118.146 Y120.659 E25.11581
G1 X117.523 Y121.056 E25.18562
G1 X117.072 Y121.279 E25.23317
G1 X116.917 Y121.395 E25.25146
G1 X116.28 Y121.769 E25.32127
G1 X115.607 Y122.073 E25.39105
G1 X115.234 Y122.205 E25.42844
G1 X114.535 Y122.43 E25.49784
G1 X113.821 Y122.618 E25.56761
G1 X113.09 Y122.727 E25.63745
G1 X112.576 Y122.748 E25.68607
G1 X112.393 Y122.789 E25.70379
G1 X111.659 Y122.871 E25.77358
G1 X110.921 Y122.874 E25.84332
G1 X110.547 Y122.845 E25.87877
G1 X109.817 Y122.768 E25.94814
G1 X109.088 Y122.651 E26.01791
G1 X108.375 Y122.456 E26.08777
G1 X107.87 Y122.257 E26.13906
G1 X107.701 Y122.223 E26.15535
G1 X106.997 Y122 E26.22514
G1 X106.321 Y121.702 E26.29495
G1 X105.99 Y121.523 E26.33051
G1 X105.355 Y121.156 E26.39982
G1 X104.736 Y120.752 E26.46967
G1 X104.165 Y120.284 E26.53944
G1 X103.787 Y119.898 E26.59049
G1 X103.645 Y119.798 E26.60691
G1 X103.092 Y119.308 E26.67673
G1 X102.373 Y118.472 E26.78093
G1 X101.941 Y117.879 E26.85026
G1 X101.539 Y117.259 E26.92009
G1 X101.206 Y116.6 E26.98986
G1 X101.011 Y116.078 E27.04252
G1 X100.924 Y115.932 E27.05858
G1 X100.619 Y115.259 E27.12841
G1 X100.304 Y114.211 E27.23182
G1 X100.15 Y113.495 E27.30103
G1 X100.034 Y112.766 E27.37079
G1 X99.997 Y112.028 E27.44062
G1 X100.031 Y111.461 E27.49429
G1 X100.011 Y111.29 E27.51056
G1 X100.005 Y110.552 E27.58031
G1 X100.08 Y109.817 E27.65012
G1 X100.148 Y109.447 E27.68567
G1 X100.301 Y108.73 E27.75496
G1 X100.494 Y108.017 E27.82476
G1 X100.763 Y107.329 E27.89457
G1 X101.01 Y106.856 E27.945
G1 X101.062 Y106.689 E27.96152
G1 X101.357 Y106.012 E28.03131
G1 X101.723 Y105.371 E28.10106
G1 X101.934 Y105.063 E28.13634
G1 X102.365 Y104.469 E28.2057
G1 X102.83 Y103.895 E28.27551
G1 X103.355 Y103.375 E28.34534
G0 F4320 X103.616 Y103.612
G1 F1800 X104.027 Y103.29 E28.39468
G1 X104.307 Y102.992 E28.43332
G1 X104.854 Y102.526 E28.50122
G1 X105.54 Y102.071 E28.57901
G1 X106.176 Y101.705 E28.64836
G1 X106.819 Y101.381 E28.7164
G1 X107.493 Y101.131 E28.78433
G1 X107.978 Y101.01 E28.83157
G1 X108.363 Y100.849 E28.871
G1 X109.053 Y100.645 E28.939
G1 X109.872 Y100.508 E29.01747
G1 X110.603 Y100.433 E29.08691
G1 X111.322 Y100.399 E29.15493
G1 X112.04 Y100.446 E29.22293
G1 X112.516 Y100.53 E29.26861
G1 X113.022 Y100.547 E29.31645
G1 X113.734 Y100.651 E29.38445
G1 X114.448 Y100.838 E29.4542
G1 X115.146 Y101.065 E29.52356
G1 X115.816 Y101.326 E29.59151
G1 X116.454 Y101.659 E29.65952
G1 X116.89 Y101.952 E29.70916
G1 X117.251 Y102.122 E29.74687
G1 X117.864 Y102.499 E29.81487
G1 X118.499 Y103.001 E29.89137
G1 X119.045 Y103.492 E29.96076
G1 X119.552 Y104.002 E30.02872
G1 X120 Y104.566 E30.09678
G1 X120.286 Y105.022 E30.14765
G1 X120.54 Y105.316 E30.18437
G1 X120.947 Y105.91 E30.25241
G1 X121.32 Y106.621 E30.32829
G1 X121.62 Y107.291 E30.39766
G1 X121.877 Y107.963 E30.46565
G1 X122.058 Y108.659 E30.53361
G1 X122.135 Y109.196 E30.58487
G1 X122.25 Y109.579 E30.62266
G1 X122.38 Y110.287 E30.69069
G1 X122.431 Y111.098 E30.76748
G1 X122.431 Y111.832 E30.83684
G1 X122.391 Y112.55 E30.9048
G1 X122.272 Y113.26 E30.97283
G1 X122.128 Y113.763 E31.02227
G1 X122.077 Y114.163 E31.06038
G1 X121.908 Y114.862 E31.12834
G1 X121.623 Y115.627 E31.20548
G1 X121.324 Y116.298 E31.2749
G1 X120.995 Y116.938 E31.34291
G1 X120.598 Y117.538 E31.41089
G1 X120.273 Y117.926 E31.45872
G1 X120.055 Y118.285 E31.49841
G1 X119.616 Y118.855 E31.5664
G1 X119.035 Y119.446 E31.64472
G1 X118.488 Y119.936 E31.71412
G1 X117.927 Y120.385 E31.78202
G1 X117.318 Y120.77 E31.85011
G1 X116.887 Y120.979 E31.89537
G1 X116.534 Y121.224 E31.93598
G1 X115.901 Y121.566 E32.00397
G1 X115.127 Y121.872 E32.08262
G1 X114.428 Y122.097 E32.15202
G1 X113.732 Y122.279 E32.22
G1 X113.02 Y122.382 E32.28798
G1 X112.527 Y122.398 E32.3346
G1 X112.113 Y122.477 E32.37443
G1 X111.396 Y122.532 E32.44238
G1 X110.584 Y122.497 E32.51919
G1 X109.854 Y122.42 E32.58855
G1 X109.144 Y122.305 E32.65652
G1 X108.451 Y122.112 E32.72451
